assets/svg/1fa8a.svg

<svg viewBox="0 0 36 36" fill="none" xmlns="http://www.w3.org/2000/svg">
<path d="M24.3498 13.04L10.3798 24.64L4.99979 29.15C4.52979 29.53 3.85979 29.48 3.48979 29.03C3.11979 28.58 3.17979 27.91 3.62979 27.52L8.98979 23.02L13.8098 19.19L11.8098 16.76L1.73979 25.06H1.72979C-0.0602094 26.63 -0.31021 29.29 1.17979 31.07C2.66979 32.84 5.32979 33.05 7.17979 31.56L7.20979 31.54L26.3798 15.46L24.3598 13.04H24.3498Z" fill="#CC8956"/>
<path d="M24.6099 11.6699C24.5599 11.3399 23.9799 10.4399 23.0899 9.38994C22.0599 8.15994 20.9799 7.36994 20.6899 7.60994C20.6699 7.62994 20.6599 7.64994 20.6399 7.66994H20.6299C20.6299 7.66994 20.6299 7.68994 20.6199 7.73994V7.75994C20.5699 8.18994 20.3599 9.87994 20.0799 10.4199C19.6899 11.1699 11.1599 17.5699 10.3599 18.3099L12.6799 20.1899C15.4099 17.8099 20.0599 13.7999 20.7099 13.2599C21.4399 12.6699 22.2499 11.8899 23.7599 12.1999C24.4399 12.3399 24.6399 11.8899 24.5999 11.6599L24.6099 11.6699Z" fill="#9AAAB4"/>
<path d="M18.3999 12.56C18.3999 12.56 18.1099 12.44 17.8599 12.65C17.6099 12.86 17.6899 13.16 17.6899 13.16L19.0899 14.81C19.0899 14.81 19.4099 14.92 19.6399 14.71C19.8999 14.47 19.8199 14.21 19.8199 14.21L18.4099 12.57L18.3999 12.56Z" fill="#9AAAB4"/>
<path d="M13.3002 19.54L17.7702 15.76L15.7702 13.34L11.4302 16.91L13.3002 19.54Z" fill="#CC8956"/>
<path d="M16.9202 13.23C16.9202 13.23 16.6002 13.09 16.3102 13.33C16.0202 13.57 16.1202 13.9 16.1202 13.9L17.7002 15.77C17.7002 15.77 18.0702 15.89 18.3202 15.65C18.6102 15.38 18.5202 15.09 18.5202 15.09L16.9202 13.23Z" fill="#CC8956"/>
<path d="M25.8801 2.38003C21.3701 5.64003 16.4901 9.43003 11.6501 11.25C7.7201 12.73 4.5801 10.32 3.1301 9.97003C2.7101 9.87003 2.2201 10.11 2.2101 10.65C2.1901 12.26 4.3601 15.45 7.5601 19.24C10.7601 23.03 14.0701 26.39 15.4001 26.03C15.7201 25.94 16.0701 25.67 16.0801 25.09C16.1001 23.61 14.3101 19.96 16.0501 16.6C17.5401 13.73 21.1101 10.33 29.7501 3.45003C30.5401 2.82003 31.6401 2.74003 32.4901 3.59003C33.1101 4.22003 33.2701 5.61003 32.3401 6.38003C29.7401 8.58003 23.1301 14.06 23.1301 14.06L25.1401 16.47C25.1401 16.47 31.5101 11.13 33.3201 9.58003C34.9201 8.22003 35.7501 6.87003 35.8001 5.08003C35.8701 2.51003 33.7501 0.080027 30.8101 0.170027C28.9801 0.220027 27.5501 1.15003 25.8601 2.37003L25.8801 2.38003Z" fill="#FCAB40"/>
<path d="M27.1377 3.31858L25.167 4.96814L29.8653 10.5813L31.8361 8.93177L27.1377 3.31858Z" fill="#FCAB40"/>
<path d="M25.8801 2.38003C21.3701 5.64003 16.4901 9.43003 11.6501 11.25C7.7201 12.73 4.5801 10.32 3.1301 9.97003C2.7101 9.87003 2.2201 10.11 2.2101 10.65C2.1901 12.26 4.3601 15.45 7.5601 19.24C10.7601 23.03 14.0701 26.39 15.4001 26.03C15.7201 25.94 16.0701 25.67 16.0801 25.09C16.1001 23.61 14.3101 19.96 16.0501 16.6C17.5401 13.73 21.1101 10.33 29.7501 3.45003C30.5401 2.82003 31.6401 2.74003 32.4901 3.59003C33.1101 4.22003 33.2701 5.61003 32.3401 6.38003C29.7401 8.58003 23.1301 14.06 23.1301 14.06L25.1401 16.47C25.1401 16.47 31.5101 11.13 33.3201 9.58003C34.9201 8.22003 35.7501 6.87003 35.8001 5.08003C35.8701 2.51003 33.7501 0.080027 30.8101 0.170027C28.9801 0.220027 27.5501 1.15003 25.8601 2.37003L25.8801 2.38003Z" fill="#FFC34A"/>
<path d="M16.8298 10.54C16.1398 11.06 15.3498 11.76 13.3998 12.76C11.2998 13.84 9.49978 14.53 8.33978 14.79C6.40978 15.22 6.16978 14.79 5.50978 13.9C4.67978 12.77 4.79978 12.36 5.15978 12.55C6.61978 13.29 7.92978 13.49 10.0498 13.14C12.0698 12.8 14.6698 11.55 16.6598 10.37C16.8898 10.23 16.9898 10.2 17.0498 10.27C17.1098 10.34 17.0198 10.41 16.8298 10.55V10.54Z" fill="#FFEA94"/>
<path d="M26.85 10.97L21.5 15.42L23.52 17.83L28.87 13.38L26.85 10.97Z" fill="#CC8956"/>
<path d="M27.3398 10.49C27.3398 10.49 26.8998 10.31 26.5098 10.62C26.1198 10.93 26.2498 11.4 26.2498 11.4L28.3998 13.93C28.3998 13.93 28.8998 14.09 29.2398 13.77C29.6398 13.4 29.5098 13.01 29.5098 13.01L27.3398 10.49Z" fill="#EAA149"/>
</svg>

<svg xmlns="http://www.w3.org/2000/svg" viewBox="0 0 36 36"><path fill="#cc8956" d="m24.35 13.04-13.97 11.6L5 29.15c-.47.38-1.14.33-1.51-.12s-.31-1.12.14-1.51l5.36-4.5 4.82-3.83-2-2.43-10.07 8.3h-.01c-1.79 1.57-2.04 4.23-.55 6.01 1.49 1.77 4.15 1.98 6 .49l.03-.02 19.17-16.08-2.02-2.42z"/><path fill="#9aaab4" d="M24.61 11.67c-.05-.33-.63-1.23-1.52-2.28-1.03-1.23-2.11-2.02-2.4-1.78-.02.02-.03.04-.05.06h-.01s0 .02-.01.07v.02c-.05.43-.26 2.12-.54 2.66-.39.75-8.92 7.15-9.72 7.89l2.32 1.88c2.73-2.38 7.38-6.39 8.03-6.93.73-.59 1.54-1.37 3.05-1.06.68.14.88-.31.84-.54z"/><path fill="#9aaab4" d="M18.4 12.56s-.29-.12-.54.09-.17.51-.17.51l1.4 1.65s.32.11.55-.1c.26-.24.18-.5.18-.5l-1.41-1.64z"/><path fill="#cc8956" d="m13.3 19.54 4.47-3.78-2-2.42-4.34 3.57z"/><path fill="#cc8956" d="M16.92 13.23s-.32-.14-.61.1-.19.57-.19.57l1.58 1.87s.37.12.62-.12c.29-.27.2-.56.2-.56z"/><path fill="#fcab40" d="M25.88 2.38c-4.51 3.26-9.39 7.05-14.23 8.87-3.93 1.48-7.07-.93-8.52-1.28-.42-.1-.91.14-.92.68-.02 1.61 2.15 4.8 5.35 8.59s6.51 7.15 7.84 6.79c.32-.09.67-.36.68-.94.02-1.48-1.77-5.13-.03-8.49 1.49-2.87 5.06-6.27 13.7-13.15.79-.63 1.89-.71 2.74.14.62.63.78 2.02-.15 2.79-2.6 2.2-9.21 7.68-9.21 7.68l2.01 2.41s6.37-5.34 8.18-6.89c1.6-1.36 2.43-2.71 2.48-4.5.07-2.57-2.05-5-4.99-4.91-1.83.05-3.26.98-4.95 2.2z"/><path fill="#fcab40" d="m27.138 3.319-1.971 1.65 4.698 5.612 1.971-1.65z"/><path fill="#ffc34a" d="M25.88 2.38c-4.51 3.26-9.39 7.05-14.23 8.87-3.93 1.48-7.07-.93-8.52-1.28-.42-.1-.91.14-.92.68-.02 1.61 2.15 4.8 5.35 8.59s6.51 7.15 7.84 6.79c.32-.09.67-.36.68-.94.02-1.48-1.77-5.13-.03-8.49 1.49-2.87 5.06-6.27 13.7-13.15.79-.63 1.89-.71 2.74.14.62.63.78 2.02-.15 2.79-2.6 2.2-9.21 7.68-9.21 7.68l2.01 2.41s6.37-5.34 8.18-6.89c1.6-1.36 2.43-2.71 2.48-4.5.07-2.57-2.05-5-4.99-4.91-1.83.05-3.26.98-4.95 2.2z"/><path fill="#ffea94" d="M16.83 10.54c-.69.52-1.48 1.22-3.43 2.22-2.1 1.08-3.9 1.77-5.06 2.03-1.93.43-2.17 0-2.83-.89-.83-1.13-.71-1.54-.35-1.35 1.46.74 2.77.94 4.89.59 2.02-.34 4.62-1.59 6.61-2.77.23-.14.33-.17.39-.1s-.03.14-.22.28z"/><path fill="#cc8956" d="m26.85 10.97-5.35 4.45 2.02 2.41 5.35-4.45z"/><path fill="#eaa149" d="M27.34 10.49s-.44-.18-.83.13-.26.78-.26.78l2.15 2.53s.5.16.84-.16c.4-.37.27-.76.27-.76z"/></svg>
